img/svg/cross.svg

<svg xmlns="http://www.w3.org/2000/svg" width="12" height="12" viewBox="0 0 12 12"><path d="M11.12 2a.4.4 0 0 1 0 .57L8 5.71a.4.4 0 0 0 0 .57l3.14 3.14a.4.4 0 0 1 0 .57L10 11.13a.41.41 0 0 1-.57 0L6.27 8a.41.41 0 0 0-.57 0l-3.14 3.12a.41.41 0 0 1-.57 0L.85 10a.4.4 0 0 1 0-.57L4 6.28a.4.4 0 0 0 0-.57L.85 2.57a.4.4 0 0 1 0-.57L2 .86a.41.41 0 0 1 .57 0L5.7 4a.4.4 0 0 0 .57 0L9.41.87a.41.41 0 0 1 .57 0z"/></svg>

<svg enable-background="new 0 0 12 12" viewBox="0 0 12 12" xmlns="http://www.w3.org/2000/svg"><path d="m11.1 2c.2.2.2.4 0 .6l-3.1 3.1c-.2.2-.2.4 0 .6l3.1 3.1c.2.2.2.4 0 .6l-1.1 1.1c-.2.2-.4.2-.6 0l-3.1-3.1c-.2-.2-.4-.2-.6 0l-3.1 3.1c-.2.2-.4.2-.6 0l-1.1-1.1c-.2-.2-.2-.4 0-.6l3.1-3.1c.2-.2.2-.4 0-.6l-3.1-3.1c-.2-.2-.2-.4-.1-.6l1.2-1.1c.2-.2.4-.2.6 0l3.1 3.1c.2.2.4.2.6 0l3.1-3.1c.2-.2.4-.2.6 0z"/></svg>
